src/assets/box-pallet-icon.svg

<svg width="633" height="633" fill="none" xmlns="http://www.w3.org/2000/svg"><circle cx="316.5" cy="316.5" r="316.5" fill="url(#paint0_linear_1061_1981)"/><path fill-rule="evenodd" clip-rule="evenodd" d="M356.169 155.022a5.45 5.45 0 00-1.421.186l-31.499 8.66c-.095.016-.19.034-.284.055l-63.118 17.32a5.464 5.464 0 00-3.312 2.579 5.498 5.498 0 00-.514 4.173l24.534 89.855-4.592 1.261h.754a5.446 5.446 0 00-2.423.565 5.474 5.474 0 00-2.946 3.858 5.503 5.503 0 00.088 2.494l28.044 102.811c-.579-.043-1.104-.219-1.694-.23a42.483 42.483 0 00-14.192 2.083c-17.001-61.65-44.749-160.68-60.176-220.565a5.488 5.488 0 00-2.065-3.06 5.457 5.457 0 00-3.533-1.05l-33.499 1.907a5.453 5.453 0 00-3.876 1.767 5.48 5.48 0 00-1.436 4.019 5.494 5.494 0 001.875 3.833 5.465 5.465 0 004.049 1.321l29.082-1.644c7.741 29.882 18.368 68.895 29.028 107.69l-13.929 24.171a5.488 5.488 0 00-.514 4.165l12.409 45.492c.037.821.258 1.622.645 2.346l13.667 50.118.875 3.19a45.273 45.273 0 00-4.374 16.881c-1.498 24.259 16.63 44.856 40.541 45.7 23.911.844 44.531-18.372 46.029-42.642.12-2.561.017-5.129-.307-7.673l106.107-29.115 5.795-1.589a5.465 5.465 0 003.108-2.264 5.494 5.494 0 00-.965-7.148 5.46 5.46 0 00-3.597-1.353 5.457 5.457 0 00-1.454.219l-5.773 1.579-105.757 29.027a42.858 42.858 0 00-9.075-14.382l98.716-27.065h-.754a5.463 5.463 0 004.34-2.146 5.488 5.488 0 00.941-4.76l-31.75-116.35a5.487 5.487 0 00-.678-1.534 5.465 5.465 0 00-4.614-2.489c-.48 0-.958.062-1.421.187l-5.259 1.436-24.534-89.855a5.497 5.497 0 00-1.544-2.575 5.46 5.46 0 00-2.666-1.371 5.426 5.426 0 00-1.093-.11l.011.022zm-3.794 12.222l23.069 84.572-84.382 23.14-23.08-84.571 21.112-5.777 12.988 47.641a5.48 5.48 0 001.909 2.925 5.454 5.454 0 006.609.117 5.471 5.471 0 002.011-2.856l7.325-18.471 14.52 11.214a5.476 5.476 0 003.49 2.362 5.45 5.45 0 004.13-.827 5.477 5.477 0 002.537-3.533 5.489 5.489 0 00-.831-4.272l-12.508-45.887 21.101-5.777zm-31.63 8.671l8.561 31.461-8.419-6.511a5.453 5.453 0 00-3.575-1.14 5.453 5.453 0 00-2.922 1.007 5.475 5.475 0 00-1.91 2.435l-4.144 10.413-8.692-31.888 21.101-5.777zm68.136 83.585l28.864 105.749L315.41 393.29c-1.236-.636-2.526-1.107-3.827-1.622l-28.164-103.24 4.92-1.348.033-.022.328-.066 26.371-7.234 15.558 57.056a5.49 5.49 0 001.258 3.363 5.452 5.452 0 006.621 1.417 5.466 5.466 0 002.518-2.554c.046-.083.09-.167.132-.253.03-.072.06-.145.087-.219l.022-.022.044-.153 7.762-18.734 15.318 12.398a5.458 5.458 0 008.546-2.229 5.492 5.492 0 00.211-3.373v-.044a12.392 12.392 0 00-.065-.175l-.044-.132a4.554 4.554 0 00-.066-.219l-15.744-57.692 26.36-7.235.088-.022 5.204-1.425v-.011zm-42.169 11.587l11.381 41.765-7.817-6.315a5.458 5.458 0 00-3.542-1.216 5.459 5.459 0 00-4.953 3.376l-4.505 10.907-11.665-42.74 21.101-5.777zm-99.602 28.665l12.202 44.122-9.403 5.952-10.168-37.27 7.369-12.804zm15.252 55.171c3.684 13.297 8.025 29.038 11.108 40.231-3.389 2.082-6.385 4.713-9.118 7.618l-11.425-41.896 9.435-5.953zm34.768 44.615c17.875.647 31.454 15.895 30.317 34.388-1.126 18.493-16.52 32.732-34.396 32.096-17.875-.635-31.487-15.894-30.35-34.387 1.137-18.482 16.553-32.722 34.429-32.086v-.011zm-.984 11.335a21.92 21.92 0 00-15.731 5.696 22.039 22.039 0 00-7.164 15.153 22.049 22.049 0 005.686 15.776 21.93 21.93 0 0015.12 7.179 21.924 21.924 0 0015.724-5.701 22.038 22.038 0 007.16-15.149 22.052 22.052 0 00-5.682-15.772 21.933 21.933 0 00-15.113-7.182zm-.514 10.962a10.823 10.823 0 017.597 3.554 10.898 10.898 0 012.8 7.923 10.897 10.897 0 01-3.562 7.611 10.846 10.846 0 01-7.907 2.803 10.862 10.862 0 01-7.587-3.568 10.915 10.915 0 01-2.799-7.92 10.9 10.9 0 013.555-7.611 10.854 10.854 0 013.671-2.197 10.828 10.828 0 014.232-.595z" fill="#fff"/><defs><linearGradient id="paint0_linear_1061_1981" x1="-68.487" y1="381.809" x2="701.487" y2="388.191" gradientUnits="userSpaceOnUse"><stop stop-color="#024EC9"/><stop offset="1" stop-color="#3884FF"/></linearGradient></defs></svg>

<svg width="633" height="633" viewBox="0 0 633 633" fill="none" xmlns="http://www.w3.org/2000/svg">
<circle cx="316.5" cy="316.5" r="316.5" fill="url(#paint0_linear_1061_1981)"/>
<path fill-rule="evenodd" clip-rule="evenodd" d="M356.169 155.022C355.689 155.021 355.211 155.084 354.748 155.208L323.249 163.868C323.154 163.884 323.059 163.902 322.965 163.923L259.847 181.243C259.153 181.433 258.503 181.759 257.935 182.201C257.366 182.644 256.891 183.195 256.535 183.822C256.18 184.45 255.951 185.141 255.863 185.857C255.775 186.573 255.828 187.3 256.021 187.995L280.555 277.85L275.963 279.111H276.717C275.877 279.11 275.047 279.303 274.294 279.676C273.54 280.049 272.882 280.591 272.371 281.26C271.86 281.929 271.51 282.708 271.348 283.534C271.186 284.361 271.216 285.214 271.436 286.028L299.48 388.839C298.901 388.796 298.376 388.62 297.786 388.609C292.972 388.494 288.173 389.198 283.594 390.692C266.593 329.042 238.845 230.012 223.418 170.127C223.103 168.899 222.374 167.817 221.353 167.067C220.332 166.318 219.083 165.946 217.82 166.017L184.321 167.924C183.589 167.944 182.87 168.11 182.204 168.414C181.538 168.717 180.94 169.152 180.445 169.691C179.949 170.231 179.567 170.864 179.32 171.555C179.074 172.245 178.968 172.978 179.009 173.71C179.05 174.442 179.237 175.159 179.559 175.817C179.881 176.475 180.332 177.062 180.884 177.543C181.436 178.023 182.079 178.388 182.775 178.615C183.47 178.842 184.204 178.927 184.933 178.864L214.015 177.22C221.756 207.102 232.383 246.115 243.043 284.91L229.114 309.081C228.76 309.707 228.532 310.397 228.444 311.112C228.355 311.827 228.409 312.552 228.6 313.246L241.009 358.738C241.046 359.559 241.267 360.36 241.654 361.084L255.321 411.202L256.196 414.392C253.725 419.544 252.183 425.255 251.822 431.273C250.324 455.532 268.452 476.129 292.363 476.973C316.274 477.817 336.894 458.601 338.392 434.331C338.512 431.77 338.409 429.202 338.085 426.658L444.192 397.543L449.987 395.954C451.262 395.601 452.367 394.797 453.095 393.69C453.824 392.583 454.128 391.249 453.951 389.935C453.773 388.62 453.126 387.415 452.13 386.542C451.134 385.67 449.856 385.189 448.533 385.189C448.04 385.196 447.551 385.27 447.079 385.408L441.306 386.987L335.549 416.014C333.514 410.66 330.428 405.77 326.474 401.632L425.19 374.567H424.436C425.275 374.567 426.103 374.374 426.856 374.002C427.609 373.63 428.266 373.089 428.776 372.421C429.287 371.753 429.638 370.976 429.801 370.151C429.964 369.326 429.935 368.474 429.717 367.661L397.967 251.311C397.821 250.768 397.592 250.25 397.289 249.777C396.789 249.008 396.105 248.377 395.299 247.942C394.492 247.507 393.59 247.283 392.675 247.288C392.195 247.288 391.717 247.35 391.254 247.475L385.995 248.911L361.461 159.056C361.195 158.07 360.66 157.179 359.917 156.481C359.173 155.784 358.25 155.309 357.251 155.11C356.891 155.036 356.525 155 356.158 155L356.169 155.022ZM352.375 167.244L375.444 251.816L291.062 274.956L267.982 190.385L289.094 184.608L302.082 232.249C302.383 233.407 303.053 234.434 303.991 235.174C304.929 235.915 306.083 236.327 307.276 236.348C308.469 236.369 309.637 235.998 310.6 235.291C311.564 234.585 312.27 233.582 312.611 232.435L319.936 213.964L334.456 225.178C334.853 225.784 335.366 226.304 335.965 226.71C336.564 227.115 337.238 227.397 337.946 227.54C338.655 227.683 339.385 227.683 340.094 227.541C340.803 227.399 341.476 227.118 342.076 226.713C342.717 226.329 343.273 225.817 343.709 225.21C344.146 224.602 344.453 223.912 344.613 223.18C344.773 222.449 344.781 221.693 344.638 220.958C344.495 220.223 344.204 219.525 343.782 218.908L331.274 173.021L352.375 167.244ZM320.745 175.915L329.306 207.376L320.887 200.865C319.867 200.074 318.601 199.67 317.312 199.725C316.262 199.772 315.247 200.121 314.39 200.732C313.533 201.342 312.87 202.188 312.48 203.167L308.336 213.58L299.644 181.692L320.745 175.915ZM388.881 259.5L417.745 365.249L315.41 393.29C314.174 392.654 312.884 392.183 311.583 391.668L283.419 288.428L288.339 287.08C288.35 287.073 288.361 287.065 288.372 287.058L288.7 286.992L315.071 279.758L330.629 336.814C330.66 338.045 331.103 339.23 331.887 340.177C332.672 341.125 333.752 341.78 334.953 342.037C336.154 342.294 337.406 342.138 338.508 341.594C339.61 341.051 340.497 340.151 341.026 339.04C341.072 338.957 341.116 338.873 341.158 338.787C341.188 338.715 341.218 338.642 341.245 338.568L341.267 338.546C341.282 338.495 341.297 338.444 341.311 338.393L349.073 319.659L364.391 332.057C365.282 332.788 366.381 333.218 367.53 333.286C368.68 333.354 369.822 333.057 370.793 332.436C371.763 331.815 372.514 330.902 372.937 329.828C373.36 328.754 373.434 327.574 373.148 326.455C373.148 326.441 373.148 326.426 373.148 326.411C373.127 326.353 373.105 326.294 373.083 326.236L373.039 326.104C373.019 326.031 372.997 325.958 372.973 325.885L357.229 268.193L383.589 260.958C383.619 260.951 383.648 260.943 383.677 260.936L388.881 259.511V259.5ZM346.712 271.087L358.093 312.852L350.276 306.537C349.275 305.726 348.02 305.296 346.734 305.321C345.67 305.339 344.635 305.669 343.755 306.268C342.875 306.868 342.189 307.712 341.781 308.697L337.276 319.604L325.611 276.864L346.712 271.087ZM247.11 299.752L259.312 343.874L249.909 349.826L239.741 312.556L247.11 299.752ZM262.362 354.923C266.046 368.22 270.387 383.961 273.47 395.154C270.081 397.236 267.085 399.867 264.352 402.772L252.927 360.876L262.362 354.923ZM297.13 399.538C315.005 400.185 328.584 415.433 327.447 433.926C326.321 452.419 310.927 466.658 293.051 466.022C275.176 465.387 261.564 450.128 262.701 431.635C263.838 413.153 279.254 398.913 297.13 399.549V399.538ZM296.146 410.873C290.358 410.616 284.703 412.664 280.415 416.569C276.126 420.475 273.552 425.922 273.251 431.722C272.996 437.527 275.039 443.198 278.937 447.498C282.834 451.798 288.27 454.379 294.057 454.677C299.843 454.93 305.495 452.881 309.781 448.976C314.067 445.071 316.64 439.626 316.941 433.827C317.196 428.024 315.154 422.355 311.259 418.055C307.364 413.756 301.931 411.174 296.146 410.873ZM295.632 421.835C297.07 421.892 298.482 422.236 299.787 422.846C301.091 423.456 302.261 424.321 303.229 425.389C304.197 426.457 304.943 427.708 305.423 429.068C305.904 430.429 306.11 431.871 306.029 433.312C305.968 434.754 305.621 436.169 305.01 437.476C304.398 438.783 303.534 439.954 302.467 440.923C301.399 441.892 300.151 442.639 298.794 443.12C297.437 443.601 295.998 443.807 294.56 443.726C293.123 443.664 291.712 443.317 290.41 442.704C289.107 442.092 287.939 441.226 286.973 440.158C286.007 439.089 285.262 437.839 284.781 436.479C284.301 435.12 284.094 433.678 284.174 432.238C284.234 430.796 284.579 429.381 285.189 428.074C285.8 426.768 286.663 425.596 287.729 424.627C288.796 423.658 290.043 422.911 291.4 422.43C292.756 421.949 294.195 421.754 295.632 421.835Z" fill="white"/>
<defs>
<linearGradient id="paint0_linear_1061_1981" x1="-68.4868" y1="381.809" x2="701.487" y2="388.191" gradientUnits="userSpaceOnUse">
<stop stop-color="#024EC9"/>
<stop offset="1" stop-color="#3884FF"/>
</linearGradient>
</defs>
</svg>
